X:1
T:Miss Field's Strathspey
T:Miss Field's Strathspey
T:Robert Mackintosh
C:Robert Mackintosh
%%score 1 2
L:1/8
M:4/4
K:G
V:1 treble 
V:2 bass 
V:1
|:"G" G,<G G>D B,<G G>D |"Am" A,<A A>G"D7" F<D E<F |"G" G,<G G>D"C" E>G c<e | %3
"D7" d>B d/c/B/A/"G" B<G G2 :|"G" b/a/g d<g B<g d<g |"C" c>g"G" B>g"D" Aaag/a/ | %6
"G" b/a/g d<g"C" e>g"G" d>g |"Am" c>a"D7" f<d"G" g>f ga |"G" b/a/g d<g B<g d<g | %9
"C" c>g"G" B>g"D" Aaag/a/ |"G" b<g"D7" f<a"G" g<d"C" e>B |"Am" c>e"D7" d/c/B/A/"G" B<G G2 |] %12
V:2
|: G,,,2 [D,G,B,]2 G,,2 [D,G,B,]2 | C,,2 [E,A,C]2 D,,2 [D,F,C]2 | G,,2 [D,G,B,]2 C,,2 [G,CE]2 | %3
 D,,2 [D,F,C]2 G,,2 [D,G,B,]2 :| [G,,,G,,]2 [D,G,B,]2 [G,D]2 [D,B,]2 | %5
 [E,C]2 [G,D]2 [D,,D,]2 [A,DF]2 | [G,,,G,,]2 [D,G,B,]2 [C,C]2 [B,,B,]2 | %7
 [A,,A,]2 [D,,D,]2 G,,2 [G,B,D]2 | [G,,,G,,]2 [D,G,B,]2 [G,D]2 [D,B,]2 | %9
 [E,C]2 [G,D]2 [D,,D,]2 [A,DF]2 | [G,D]2 [D,C]2 [B,,G,]2 [C,G,]2 | %11
 [A,,A,]2 [D,F,C]2 G,,2 [G,B,D]2 |] %12

